assets/Ninja/Light/Flat/ninja_flat_light.svg

<svg width="32" height="32" viewBox="0 0 32 32" fill="none" xmlns="http://www.w3.org/2000/svg">
<path d="M17.1137 2C18.5961 2 20.0088 2.64281 20.9838 3.76773C21.9488 4.88261 22.3965 6.36911 22.2075 7.82549L21.8494 13.6409V13.6811C21.7067 14.7501 21.2299 15.7053 20.534 16.4439C24.3852 18.1552 27.0658 22.0115 27.0585 26.5V30H5.05847V26.5C5.05847 23.8877 5.96896 21.4896 7.48919 19.6038L8.42969 17.3867L10.592 16.954C10.89 16.783 11.1968 16.6255 11.5115 16.4824C10.7957 15.7386 10.3046 14.7687 10.1595 13.6811V13.651L9.78147 7.82549C9.62229 6.27872 10.07 4.8123 11.0549 3.69743C12.02 2.60264 13.3829 2 14.8753 2H17.1137Z" fill="#321B41"/>
<path d="M2.34458 8.70542L3.34849 8.57352L4.08115 7.70996L3.79852 7.21999C3.67852 7.00999 3.41852 6.93999 3.21852 7.05999L2.21852 7.62999C2.00852 7.74999 1.93852 8.00999 2.05852 8.20999L2.34458 8.70542Z" fill="#321B41"/>
<path d="M5.0837 9.44803L4.34761 10.3066L3.34849 10.4441L2.84459 9.57141L3.50382 8.70542L4.57294 8.57352L5.0837 9.44803Z" fill="#321B41"/>
<path d="M4.34761 12.1745L5.34649 12.0381L6.08142 11.1777L5.57673 10.3123L4.57294 10.4441L3.8485 11.3101L4.34761 12.1745Z" fill="#321B41"/>
<path d="M7.07875 12.9067L6.34852 13.6811L5.34649 13.9045L4.84762 13.0405L5.44256 12.1745L6.57575 12.0428L7.07875 12.9067Z" fill="#321B41"/>
<path d="M8.07852 14.64L7.70442 15.64H6.34852L5.8465 14.7705L6.46895 13.9045L7.57465 13.7727L8.07852 14.64Z" fill="#321B41"/>
<path d="M2.34094 8.70752L4.07294 7.70752L4.57294 8.57352L2.84094 9.57352L2.34094 8.70752Z" fill="#533566"/>
<path d="M3.34473 10.4463L5.07673 9.44629L5.57673 10.3123L3.84473 11.3123L3.34473 10.4463Z" fill="#533566"/>
<path d="M4.34375 12.1768L6.07575 11.1768L6.57575 12.0428L4.84375 13.0428L4.34375 12.1768Z" fill="#533566"/>
<path d="M5.34265 13.9067L7.07465 12.9067L7.57465 13.7727L5.84265 14.7727L5.34265 13.9067Z" fill="#533566"/>
<path d="M10.0985 14.7L9.50131 15.0448L10.5992 16.9471C10.8946 16.7782 11.1985 16.6224 11.5098 16.4804C12.1046 17.099 12.855 17.5615 13.6911 17.8054L16.1492 21.627L18.5309 17.7378C19.298 17.4754 19.9848 17.0268 20.5348 16.4429C21.0927 16.6935 21.6248 16.9884 22.1285 17.3199L17.9395 24.4102L21.5284 29.9899H18.1684L10.01 17.3124C9.05341 17.9434 8.20098 18.7196 7.48435 19.6098L6.00935 17.0614L5.38849 17.42C5.24849 17.5 5.07849 17.45 4.99849 17.31L4.74849 16.88C4.66849 16.75 4.71849 16.57 4.84849 16.49L9.55849 13.77C9.68849 13.69 9.86849 13.74 9.94849 13.87L10.1985 14.3C10.2785 14.45 10.2285 14.62 10.0985 14.7Z" fill="#533566"/>
<path d="M18.0285 6.35986H16.1485H14.2685C12.6085 6.35986 11.2985 7.75986 11.4185 9.41986L11.5185 10.8599C11.5785 11.6799 12.2585 12.3199 13.0885 12.3199C13.3985 12.3199 13.7085 12.2299 13.9685 12.0499L14.7885 11.4899C15.6085 10.9399 16.6785 10.9399 17.4985 11.4899L18.3185 12.0499C18.5785 12.2299 18.8885 12.3199 19.1985 12.3199C20.0285 12.3199 20.7085 11.6799 20.7685 10.8599L20.8685 9.41986C20.9885 7.75986 19.6785 6.35986 18.0285 6.35986Z" fill="#FFD7C2"/>
<path d="M12.3325 8.38389C12.434 8.51414 12.6214 8.53784 12.7517 8.43644L12.7538 8.43492C12.7567 8.43272 12.7622 8.42879 12.77 8.42337C12.7856 8.41254 12.8107 8.39588 12.8445 8.37557C12.9124 8.33487 13.0145 8.28008 13.1458 8.22822C13.4085 8.1245 13.7832 8.03412 14.2335 8.08709C14.3976 8.10639 14.5462 7.98903 14.5656 7.82494C14.5849 7.66086 14.4675 7.51219 14.3034 7.49289C13.7337 7.42586 13.2584 7.54048 12.9261 7.67175C12.7599 7.7374 12.6283 7.80761 12.5367 7.86253C12.4909 7.89004 12.4549 7.91384 12.4293 7.93152C12.4166 7.94037 12.4064 7.9477 12.3989 7.95322L12.3897 7.9601L12.3866 7.96245L12.3855 7.96334L12.3846 7.96404C12.2542 8.06561 12.2309 8.25358 12.3325 8.38389Z" fill="#212121"/>
<path d="M19.7604 7.96245L19.7622 7.96388C19.8925 8.06545 19.916 8.25358 19.8145 8.38389C19.7132 8.51382 19.526 8.53737 19.3957 8.43682L19.3932 8.43492C19.3902 8.43272 19.3848 8.42879 19.377 8.42337C19.3613 8.41254 19.3363 8.39588 19.3024 8.37557C19.2346 8.33487 19.1324 8.28008 19.0011 8.22822C18.7385 8.1245 18.3637 8.03412 17.9135 8.08709C17.7494 8.10639 17.6007 7.98903 17.5814 7.82494C17.5621 7.66086 17.6795 7.51219 17.8436 7.49289C18.4133 7.42586 18.8885 7.54048 19.2209 7.67175C19.3871 7.7374 19.5187 7.80761 19.6102 7.86253C19.6561 7.89004 19.6921 7.91384 19.7176 7.93152C19.7304 7.94037 19.7406 7.9477 19.7481 7.95322L19.7573 7.9601L19.7604 7.96245Z" fill="#212121"/>
<path d="M12.2485 10.2201C12.3985 9.60014 12.9585 9.14014 13.6285 9.14014C14.3285 9.14014 14.8985 9.64014 15.0285 10.2901C15.0585 10.4401 14.9485 10.5701 14.7985 10.5701H12.5185C12.3385 10.5701 12.2085 10.4001 12.2485 10.2201Z" fill="white"/>
<path d="M19.8985 10.2201C19.7485 9.60014 19.1885 9.14014 18.5185 9.14014C17.8185 9.14014 17.2485 9.64014 17.1185 10.2901C17.0885 10.4401 17.1985 10.5701 17.3485 10.5701H19.6285C19.8085 10.5701 19.9385 10.4001 19.8985 10.2201Z" fill="white"/>
<path d="M12.9285 10.3299C12.9285 9.82992 13.3385 9.41992 13.8385 9.41992C14.3485 9.41992 14.7585 9.82992 14.7485 10.3299C14.7485 10.4099 14.7385 10.4899 14.7185 10.5699H12.9585C12.9385 10.4899 12.9285 10.4099 12.9285 10.3299Z" fill="#7D4533"/>
<path d="M19.2184 10.3299C19.2184 9.82992 18.8084 9.41992 18.3084 9.41992C17.7984 9.41992 17.3984 9.82992 17.3984 10.3299C17.3984 10.4099 17.4084 10.4899 17.4284 10.5699H19.1884C19.2084 10.4899 19.2184 10.4099 19.2184 10.3299Z" fill="#7D4533"/>
<path d="M13.8385 9.81006C14.1285 9.81006 14.3585 10.0401 14.3585 10.3301C14.3585 10.4201 14.3385 10.5001 14.2985 10.5701H13.3785C13.3385 10.5001 13.3185 10.4201 13.3185 10.3301C13.3185 10.0401 13.5485 9.81006 13.8385 9.81006Z" fill="black"/>
<path d="M18.3085 9.81006C18.0185 9.81006 17.7885 10.0401 17.7885 10.3301C17.7885 10.4201 17.8085 10.5001 17.8485 10.5701H18.7685C18.8085 10.5001 18.8285 10.4201 18.8285 10.3301C18.8285 10.0401 18.5985 9.81006 18.3085 9.81006Z" fill="black"/>
<path d="M13.6885 9.97006C13.6885 10.0584 13.6169 10.1301 13.5285 10.1301C13.4402 10.1301 13.3685 10.0584 13.3685 9.97006C13.3685 9.88169 13.4402 9.81006 13.5285 9.81006C13.6169 9.81006 13.6885 9.88169 13.6885 9.97006Z" fill="white"/>
<path d="M18.1885 9.97006C18.1885 10.0584 18.1169 10.1301 18.0285 10.1301C17.9402 10.1301 17.8685 10.0584 17.8685 9.97006C17.8685 9.88169 17.9402 9.81006 18.0285 9.81006C18.1169 9.81006 18.1885 9.88169 18.1885 9.97006Z" fill="white"/>
</svg>

<svg xmlns="http://www.w3.org/2000/svg" width="32" height="32" fill="none"><path fill="#321B41" d="M17.114 2c1.482 0 2.895.643 3.87 1.768a5.201 5.201 0 0 1 1.223 4.057l-.358 5.816v.04a4.985 4.985 0 0 1-1.315 2.763A10.976 10.976 0 0 1 27.058 26.5V30h-22v-3.5c0-2.612.911-5.01 2.431-6.896l.94-2.217 2.163-.433c.298-.171.605-.329.92-.472a4.985 4.985 0 0 1-1.353-2.8v-.031l-.378-5.826c-.159-1.546.289-3.013 1.274-4.128C12.02 2.603 13.383 2 14.875 2h2.239ZM2.345 8.705l1.003-.131.733-.864-.282-.49a.42.42 0 0 0-.58-.16l-1 .57a.42.42 0 0 0-.16.58l.286.495ZM5.084 9.448l-.736.859-1 .137-.503-.873.659-.866 1.069-.131.51.874ZM4.348 12.175l.998-.137.735-.86-.504-.866-1.004.132-.725.866.5.864ZM7.079 12.907l-.73.774-1.003.224-.498-.864.595-.867 1.133-.131.503.864Z"/><path fill="#321B41" d="m8.079 14.64-.375 1H6.35l-.503-.87.623-.865 1.106-.132.504.867Z"/><path fill="#533566" d="m2.34 8.708 1.733-1 .5.866-1.732 1-.5-.866ZM3.345 10.446l1.732-1 .5.866-1.732 1-.5-.866ZM4.344 12.177l1.732-1 .5.866-1.732 1-.5-.866ZM5.343 13.907l1.732-1 .5.866-1.732 1-.5-.866ZM10.098 14.7l-.597.345 1.098 1.902c.296-.169.6-.325.91-.467a4.957 4.957 0 0 0 2.182 1.325l2.458 3.822 2.382-3.89a4.965 4.965 0 0 0 2.004-1.294c.558.25 1.09.545 1.593.877l-4.189 7.09 3.59 5.58h-3.36L10.01 17.312a11.067 11.067 0 0 0-2.526 2.298L6.01 17.06l-.62.359c-.14.08-.31.03-.39-.11l-.25-.43a.29.29 0 0 1 .1-.39l4.71-2.72a.29.29 0 0 1 .39.1l.25.43c.08.15.03.32-.1.4Z"/><path fill="#FFD7C2" d="M18.029 6.36h-3.76c-1.66 0-2.97 1.4-2.85 3.06l.1 1.44a1.573 1.573 0 0 0 2.45 1.19l.82-.56c.82-.55 1.89-.55 2.71 0l.82.56a1.573 1.573 0 0 0 2.45-1.19l.1-1.44a2.85 2.85 0 0 0-2.84-3.06Z"/><path fill="#212121" d="M12.332 8.384c.102.13.29.154.42.052l.002-.001a2.067 2.067 0 0 1 .392-.207 2.24 2.24 0 0 1 1.088-.14.3.3 0 0 0 .07-.595 2.837 2.837 0 0 0-1.767.37 2.017 2.017 0 0 0-.138.09l-.01.007-.002.002-.002.001v.001a.299.299 0 0 0-.053.42ZM19.76 7.962l.002.002a.3.3 0 0 1-.366.473l-.003-.002a.763.763 0 0 0-.09-.06 2.239 2.239 0 0 0-1.389-.288.3.3 0 1 1-.07-.594 2.837 2.837 0 0 1 1.766.37 1.938 1.938 0 0 1 .138.09l.01.007.002.002Z"/><path fill="#fff" d="M12.248 10.22c.15-.62.71-1.08 1.38-1.08.7 0 1.27.5 1.4 1.15a.23.23 0 0 1-.23.28h-2.28c-.18 0-.31-.17-.27-.35ZM19.898 10.22c-.15-.62-.71-1.08-1.38-1.08-.7 0-1.27.5-1.4 1.15-.03.15.08.28.23.28h2.28c.18 0 .31-.17.27-.35Z"/><path fill="#7D4533" d="M12.928 10.33c0-.5.41-.91.91-.91a.9.9 0 0 1 .91.91c0 .08-.01.16-.03.24h-1.76a.986.986 0 0 1-.03-.24ZM19.218 10.33c0-.5-.41-.91-.91-.91-.51 0-.91.41-.91.91 0 .08.01.16.03.24h1.76c.02-.08.03-.16.03-.24Z"/><path fill="#000" d="M13.838 9.81a.516.516 0 0 1 .46.76h-.92a.516.516 0 0 1 .46-.76ZM18.308 9.81a.516.516 0 0 0-.46.76h.92a.516.516 0 0 0-.46-.76Z"/><path fill="#fff" d="M13.688 9.97a.16.16 0 1 1-.32 0 .16.16 0 0 1 .32 0ZM18.189 9.97a.16.16 0 1 1-.32 0 .16.16 0 0 1 .32 0Z"/></svg>
